Adwaita++-Light/panel/16/youtube-indicator-downloading-light.svg

<svg height="16" width="16" xmlns="http://www.w3.org/2000/svg">
  <path d="m8.1074219 2c-1.8698.0004-4.6282781.1237438-5.4550781.1523438-.8988003.0859999-1.2304032.1340312-1.72070318.5820312-.75482.7106-.93164062 2.1081937-.93164062 4.2460938v2.0332031c.00000005 2.4374001.30353375 3.6769061.80859375 4.1289061.57708005.529.95782375.569813 1.33984375.632813.1489.023 1.207325.224609 5.890625.224609 1.1080174 0 2.0268335-.030223 2.9160155-.058594l-.255859-.341797-1.5000002-2c-.4939122-.659495-.0231621-1.5998465.8007812-1.599609h1v-2l-4 3v-6l4 3v-.1191406c0-.4067359.087065-.7877584.300781-1.140625.213716-.3528667.641984-.7402344 1.232422-.7402344h.933594c.590438 0 1.018706.3873677 1.232422.7402344.213716.3528666.300781.7338891.300781 1.140625v2.1191406h.976562c.010916-.3131723.023438-.6225475.023438-.9746094v-2.3671875c0-1.2653-.064734-3.0508812-.802734-3.8007812-.56-.5053-.763922-.6463844-1.919922-.7089844-.326-.0154-3.177222-.1487775-5.1699221-.1484375zm4.4257811 5c-.295 0-.533203.3918594-.533203.8808594v3.1191406h-2l1.5 2 1.5 2 1.5-2 1.5-2h-2v-3.1191406c0-.489-.238203-.8808594-.533203-.8808594z" fill="#444"/>
</svg>

<svg xmlns="http://www.w3.org/2000/svg" width="16" height="16" version="1.1">
 <defs>
  <style id="current-color-scheme" type="text/css">
   .ColorScheme-Text { color:#444444; } .ColorScheme-Highlight { color:#4285f4; }
  </style>
 </defs>
 <path style="fill:currentColor" class="ColorScheme-Text" d="M 8.1074219 2 C 6.2376219 2.0004 3.4791438 2.1237438 2.6523438 2.1523438 C 1.7535435 2.2383437 1.4219406 2.286375 0.93164062 2.734375 C 0.17682062 3.444975 -1.4802974e-16 4.8425687 0 6.9804688 L 0 9.0136719 C 5.33e-08 11.451072 0.30353375 12.690578 0.80859375 13.142578 C 1.3856738 13.671578 1.7664175 13.712391 2.1484375 13.775391 C 2.2973375 13.798391 3.3557625 14 8.0390625 14 C 9.1470799 14 10.065896 13.969777 10.955078 13.941406 L 10.699219 13.599609 L 9.1992188 11.599609 C 8.7053066 10.940114 9.1760567 9.9997625 10 10 L 11 10 L 11 8 L 7 11 L 7 5 L 11 8 L 11 7.8808594 C 11 7.4741235 11.087065 7.093101 11.300781 6.7402344 C 11.514497 6.3873677 11.942765 6 12.533203 6 L 13.466797 6 C 14.057235 6 14.485503 6.3873677 14.699219 6.7402344 C 14.912935 7.093101 15 7.4741235 15 7.8808594 L 15 10 L 15.976562 10 C 15.987478 9.6868277 16 9.3774525 16 9.0253906 L 16 6.6582031 C 16 5.3929031 15.935266 3.6073219 15.197266 2.8574219 C 14.637266 2.3521219 14.433344 2.2110375 13.277344 2.1484375 C 12.951344 2.1330375 10.100122 1.99966 8.1074219 2 z M 12.533203 7 C 12.238203 7 12 7.3918594 12 7.8808594 L 12 11 L 10 11 L 11.5 13 L 13 15 L 14.5 13 L 16 11 L 14 11 L 14 7.8808594 C 14 7.3918594 13.761797 7 13.466797 7 L 12.533203 7 z"/>
</svg>
